assets/img/brand-card.svg

<svg viewBox="0 0 99 100" fill="none" xmlns="http://www.w3.org/2000/svg">
<ellipse cx="49.5" cy="50" rx="49.5" ry="50" fill="white"/>
<mask id="mask0_2491_238" style="mask-type:alpha" maskUnits="userSpaceOnUse" x="20" y="27" width="60" height="46">
<rect x="20" y="27" width="60" height="46" fill="#D9D9D9"/>
</mask>
<g mask="url(#mask0_2491_238)">
<path d="M30.2158 64.4233L40.7178 53.9213C41.3095 53.3296 41.9998 53.0461 42.7887 53.0707C43.5776 53.0954 44.2678 53.4035 44.8595 53.9952C45.4019 54.5869 45.673 55.2772 45.673 56.066C45.673 56.8549 45.4019 57.5452 44.8595 58.1369L32.3605 70.7098C31.7689 71.3015 31.0786 71.5973 30.2897 71.5973C29.5008 71.5973 28.8105 71.3015 28.2189 70.7098L21.8585 64.3494C21.3161 63.807 21.0449 63.1167 21.0449 62.2785C21.0449 61.4403 21.3161 60.7501 21.8585 60.2077C22.4008 59.6654 23.0911 59.3942 23.9293 59.3942C24.7675 59.3942 25.4578 59.6654 26.0001 60.2077L30.2158 64.4233ZM30.2158 40.7567L40.7178 30.2546C41.3095 29.6629 41.9998 29.3794 42.7887 29.4041C43.5776 29.4287 44.2678 29.7369 44.8595 30.3285C45.4019 30.9202 45.673 31.6105 45.673 32.3994C45.673 33.1883 45.4019 33.8785 44.8595 34.4702L32.3605 47.0431C31.7689 47.6348 31.0786 47.9306 30.2897 47.9306C29.5008 47.9306 28.8105 47.6348 28.2189 47.0431L21.8585 40.6827C21.3161 40.1404 21.0449 39.4501 21.0449 38.6119C21.0449 37.7737 21.3161 37.0834 21.8585 36.541C22.4008 35.9987 23.0911 35.7275 23.9293 35.7275C24.7675 35.7275 25.4578 35.9987 26.0001 36.541L30.2158 40.7567ZM55.2876 66.864C54.4494 66.864 53.7468 66.5805 53.1798 66.0134C52.6128 65.4464 52.3293 64.7438 52.3293 63.9056C52.3293 63.0674 52.6128 62.3648 53.1798 61.7978C53.7468 61.2308 54.4494 60.9473 55.2876 60.9473H75.996C76.8342 60.9473 77.5368 61.2308 78.1038 61.7978C78.6708 62.3648 78.9543 63.0674 78.9543 63.9056C78.9543 64.7438 78.6708 65.4464 78.1038 66.0134C77.5368 66.5805 76.8342 66.864 75.996 66.864H55.2876ZM55.2876 43.1973C54.4494 43.1973 53.7468 42.9138 53.1798 42.3468C52.6128 41.7798 52.3293 41.0772 52.3293 40.239C52.3293 39.4008 52.6128 38.6982 53.1798 38.1312C53.7468 37.5641 54.4494 37.2806 55.2876 37.2806H75.996C76.8342 37.2806 77.5368 37.5641 78.1038 38.1312C78.6708 38.6982 78.9543 39.4008 78.9543 40.239C78.9543 41.0772 78.6708 41.7798 78.1038 42.3468C77.5368 42.9138 76.8342 43.1973 75.996 43.1973H55.2876Z" fill="#154973"/>
</g>
</svg>

<svg xmlns="http://www.w3.org/2000/svg" fill="none" viewBox="0 0 99 100"><ellipse cx="49.5" cy="50" fill="#fff" rx="49.5" ry="50"/><mask id="a" width="60" height="46" x="20" y="27" maskUnits="userSpaceOnUse" style="mask-type:alpha"><path fill="#d9d9d9" d="M20 27h60v46H20z"/></mask><g mask="url(#a)"><path fill="#154973" d="m30.216 64.423 10.502-10.502q.887-.887 2.07-.85 1.184.037 2.072.924.813.888.813 2.071t-.814 2.07L32.362 70.71q-.888.887-2.071.887-1.185 0-2.071-.887l-6.36-6.36q-.814-.814-.814-2.071t.813-2.071 2.071-.814 2.071.814zm0-23.666 10.502-10.502q.887-.889 2.07-.85 1.184.036 2.072.923.813.888.813 2.071 0 1.185-.814 2.071L32.362 47.043q-.888.888-2.071.888-1.185 0-2.071-.888l-6.36-6.36q-.814-.814-.814-2.071t.813-2.071q.814-.813 2.071-.813T26 36.54zm25.072 26.107q-1.258 0-2.108-.85-.85-.852-.85-2.108 0-1.258.85-2.108t2.108-.85h20.708q1.257 0 2.108.85.85.85.85 2.108 0 1.257-.85 2.107t-2.108.851zm0-23.667q-1.258 0-2.108-.85t-.85-2.108q0-1.256.85-2.108.85-.85 2.108-.85h20.708q1.257 0 2.108.85.85.85.85 2.108 0 1.256-.85 2.108-.85.85-2.108.85z"/></g></svg>
